X:3128
T:Coalminer's Reel, The
R:reel
H:Also in G, #745. Different version, see #747.
Z:id:hn-reel-509
M:C|
K:D
A,DFD EDB,D|ADFD EDB,D|A,DFD EDB,D|dBAF E2DB,|
A,DFD EDB,D|ADFD EDB,D|A,DFD EDB,D|1 dBAF D2DB,:|2 dBAF D2 (3ABc||
|:~d3B A2dB|A2FD EDB,D|~d3B ABde|fedf e2de|
fd~d2 efdB|A2FD EDB,D|A,DFD EDB,D|1 dBAF D2 (3ABc:|2 dBAF D2DB,||


